X: 6418
T: Castle, The
R: jig
M: 6/8
K: Adorian
|:c2A BAG|EGG EAB|cBc dB/c/d|ega ged|
c2A BAG|EGG EAB|cec dBG|BAA A3B:|
|:cBA a3|bag edB|GBd g3|GBd cBA|
cBc dB/c/d|ede gab|age dBG|EAG A2B:|

